X: 31759
T: Patricia Kelso's
R: slip jig
M: 9/8
K: Fmajor
Acc cAc {c}d2f|Acc {e}f2d cAF|GAc cdf cdc|dfa agf gaf|
d2f fdc dcA|cdc A2G AGF|Acc cfd cAc|1 dcA GFG G3:|2 dcA GFE F3||
|:agf d2e fga|gfe d2e fed|Acc c2d cAF|Ace fed cAF|
agf d2e fgf|efe d2e fed|c2c BcB AFG|1 Acd dcd fga:|2 Acc cAc d3||

